src/assets/whatsupMobile.svg

<svg width="40" height="40" fill="none" viewBox="0 0 40 40" xmlns="http://www.w3.org/2000/svg"> <path d="m20 0c11.046 0 20 8.954 20 20s-8.954 20-20 20c-3.5344 0.0057-7.0067-0.9297-10.06-2.71l-9.932 2.71 2.704-9.936c-1.7818-3.0543-2.7179-6.528-2.712-10.064 0-11.046 8.954-20 20-20zm-6.816 10.6-0.4 0.016c-0.2589 0.0158-0.512 0.0838-0.744 0.2-0.2169 0.1229-0.415 0.2764-0.588 0.456-0.24 0.226-0.376 0.422-0.522 0.612-0.7397 0.9618-1.138 2.1426-1.132 3.356 4e-3 0.98 0.25998 1.934 0.65998 2.826 0.818 1.804 2.164 3.714 3.94 5.484 0.428 0.426 0.848 0.854 1.3 1.252 2.2068 1.9429 4.8365 3.3441 7.68 4.092l1.136 0.174c0.37 0.02 0.74-8e-3 1.112-0.026 0.5825-0.0301 1.1512-0.1878 1.666-0.462 0.2619-0.1349 0.5175-0.2817 0.766-0.44 0 0 0.086-0.056 0.25-0.18 0.27-0.2 0.436-0.342 0.66-0.576 0.166-0.172 0.31-0.374 0.42-0.604 0.156-0.326 0.312-0.948 0.376-1.466 0.048-0.396 0.034-0.612 0.028-0.746-8e-3 -0.214-0.186-0.436-0.38-0.53l-1.164-0.522s-1.74-0.758-2.804-1.242c-0.1113-0.0486-0.2306-0.0764-0.352-0.082-0.1368-0.0141-0.2751 0.0013-0.4055 0.0451-0.1304 0.0439-0.2499 0.1151-0.3505 0.2089-0.01-4e-3 -0.144 0.11-1.59 1.862-0.083 0.1115-0.1973 0.1958-0.3284 0.2421s-0.273 0.0525-0.4076 0.0179c-0.1303-0.035-0.2579-0.0791-0.382-0.132-0.248-0.104-0.334-0.144-0.504-0.216-1.1479-0.5009-2.2106-1.1777-3.15-2.006-0.252-0.22-0.486-0.46-0.726-0.692-0.7868-0.7536-1.4725-1.606-2.04-2.536l-0.118-0.19c-0.0847-0.1277-0.1533-0.2654-0.204-0.41-0.076-0.294 0.122-0.53 0.122-0.53s0.486-0.532 0.712-0.82c0.22-0.28 0.406-0.552 0.526-0.746 0.236-0.38 0.31-0.77 0.186-1.072-0.56-1.368-1.14-2.73-1.736-4.082-0.118-0.268-0.468-0.46-0.786-0.498-0.108-0.012-0.216-0.024-0.324-0.032-0.2686-0.0133-0.5377-0.0107-0.806 8e-3l0.404-0.014z" fill="#45C179"/>
</svg>

<svg width="40" height="40" viewBox="0 0 40 40" fill="none" xmlns="http://www.w3.org/2000/svg">
<path d="M20 0C31.046 0 40 8.954 40 20C40 31.046 31.046 40 20 40C16.4656 40.0057 12.9933 39.0703 9.94002 37.29L0.00802813 40L2.71203 30.064C0.930214 27.0097 -0.00587675 23.536 2.77605e-05 20C2.77605e-05 8.954 8.95402 0 20 0ZM13.184 10.6L12.784 10.616C12.5251 10.6318 12.272 10.6998 12.04 10.816C11.8231 10.9389 11.625 11.0924 11.452 11.272C11.212 11.498 11.076 11.694 10.93 11.884C10.1903 12.8458 9.79197 14.0266 9.79802 15.24C9.80202 16.22 10.058 17.174 10.458 18.066C11.276 19.87 12.622 21.78 14.398 23.55C14.826 23.976 15.246 24.404 15.698 24.802C17.9048 26.7449 20.5345 28.1461 23.378 28.894L24.514 29.068C24.884 29.088 25.254 29.06 25.626 29.042C26.2085 29.0119 26.7772 28.8542 27.292 28.58C27.5539 28.4451 27.8095 28.2983 28.058 28.14C28.058 28.14 28.144 28.084 28.308 27.96C28.578 27.76 28.744 27.618 28.968 27.384C29.134 27.212 29.278 27.01 29.388 26.78C29.544 26.454 29.7 25.832 29.764 25.314C29.812 24.918 29.798 24.702 29.792 24.568C29.784 24.354 29.606 24.132 29.412 24.038L28.248 23.516C28.248 23.516 26.508 22.758 25.444 22.274C25.3327 22.2254 25.2134 22.1976 25.092 22.192C24.9552 22.1779 24.8169 22.1933 24.6865 22.2371C24.5561 22.281 24.4366 22.3522 24.336 22.446C24.326 22.442 24.192 22.556 22.746 24.308C22.663 24.4195 22.5487 24.5038 22.4176 24.5501C22.2865 24.5964 22.1446 24.6026 22.01 24.568C21.8797 24.533 21.7521 24.4889 21.628 24.436C21.38 24.332 21.294 24.292 21.124 24.22C19.9761 23.7191 18.9134 23.0423 17.974 22.214C17.722 21.994 17.488 21.754 17.248 21.522C16.4612 20.7684 15.7755 19.916 15.208 18.986L15.09 18.796C15.0053 18.6683 14.9367 18.5306 14.886 18.386C14.81 18.092 15.008 17.856 15.008 17.856C15.008 17.856 15.494 17.324 15.72 17.036C15.94 16.756 16.126 16.484 16.246 16.29C16.482 15.91 16.556 15.52 16.432 15.218C15.872 13.85 15.292 12.488 14.696 11.136C14.578 10.868 14.228 10.676 13.91 10.638C13.802 10.626 13.694 10.614 13.586 10.606C13.3174 10.5927 13.0483 10.5953 12.78 10.614L13.184 10.6Z" fill="#45C179"/>
</svg>
